X:281
T:Sculley's reel
R:Reel
S:Richard Darsie's web page
Z:Transcription, chords:Mike Long
M:C|
L:1/8
K:G
B,2|"Em"EDEF GFGA|"G"BcBA GFGA|"Em"B2 E2 E2 G2|\
"D"FGFE D2 F2|"Em"EDEF GFGA|
"G"BcBA GFGA|"Bm"B3 c BAFA|"Em"G2 E2 E2:|\
|:B2|"Em"efge B2 B2|"G"g2 g2 B4|"Am"c3B A2 G2|
"D"FGAF D2 F2|"Em"EDEF GFGA|"G"BABd e2 d2|\
"Bm"B3 c BAFA|"Em"G2 E2 E2:|
